X:083 
T:Jackson's Rambles 
F:file ID: cre.5/083jacks_r
B:CRE5.009 (Camchuairt Mhic Shiacais)
N:"Jackson" being Walter "Squire" Jackson, musician and composer who 
flourished in the Limerick area around 1780. 
M:6/8
Q:160
R:jig
K:D
A|DFA dAF|BGE AFD|DFA dAF|GEE E2A|
DFA dAF|BGE AFD|faf gec|ded d2:|
|:A|dfa fed|ced cBA|fga fed|cee e2A|
dfa fed|ced cBA|faf gec|ded d2:|

%%%

